src/assets/icons/svg/upload.svg

<svg width="24" height="24" viewBox="0 0 24 24" fill="none" xmlns="http://www.w3.org/2000/svg">
<g clip-path="url(#clip0)">
<path d="M20.25 24.0461H3.75C1.68219 24.0461 0 22.364 0 20.2961V17.1086C0 16.591 0.419678 16.1711 0.9375 16.1711C1.45532 16.1711 1.875 16.591 1.875 17.1086V20.2961C1.875 21.3301 2.71619 22.1711 3.75 22.1711H20.25C21.2838 22.1711 22.125 21.3301 22.125 20.2961V17.1086C22.125 16.591 22.5447 16.1711 23.0625 16.1711C23.5803 16.1711 24 16.591 24 17.1086V20.2961C24 22.364 22.3178 24.0461 20.25 24.0461ZM12.9844 19.3585V8.29614C12.9844 7.26233 12.1432 6.42114 11.1094 6.42114H7.18542L11.3846 2.19745C11.5611 2.01965 11.7964 1.92188 12.0469 1.92188C12.2974 1.92188 12.5327 2.01965 12.7092 2.19745L16.9083 6.42114H15.9844C15.4666 6.42114 15.0469 6.841 15.0469 7.35864C15.0469 7.87646 15.4666 8.29614 15.9844 8.29614H17.0151C17.7546 8.29614 18.4164 7.85394 18.7011 7.16949C18.9869 6.4823 18.8329 5.69769 18.3089 5.17053L14.0389 0.875427C13.5077 0.341126 12.8004 0.046875 12.0469 0.046875C11.2934 0.046875 10.5861 0.341126 10.0549 0.875427L5.78485 5.17053C5.2608 5.69769 5.10681 6.4823 5.39264 7.16949C5.67719 7.85394 6.33911 8.29633 7.07867 8.29633H11.1094V19.3585C11.1094 19.8763 11.5291 20.296 12.0469 20.296C12.5647 20.296 12.9844 19.8761 12.9844 19.3585Z" fill="black"/>
</g>
<defs>
<clipPath id="clip0">
<rect width="24" height="24" fill="white"/>
</clipPath>
</defs>
</svg>

<?xml version="1.0" encoding="iso-8859-1"?>
<!-- Generator: Adobe Illustrator 23.1.0, SVG Export Plug-In . SVG Version: 6.00 Build 0)  -->
<svg version="1.1" id="&#x421;&#x43B;&#x43E;&#x439;_1"
	 xmlns="http://www.w3.org/2000/svg" xmlns:xlink="http://www.w3.org/1999/xlink" x="0px" y="0px" viewBox="0 0 24 24"
	 style="enable-background:new 0 0 24 24;" xml:space="preserve">
<g>
	<defs>
		<rect id="SVGID_1_" width="24" height="24"/>
	</defs>
	<clipPath id="SVGID_2_">
		<use xlink:href="#SVGID_1_"  style="overflow:visible;"/>
	</clipPath>
	<g style="clip-path:url(#SVGID_2_);">
		<path d="M20.25,24.046H3.75c-2.068,0-3.75-1.682-3.75-3.75v-3.188c0-0.518,0.42-0.938,0.938-0.938c0.518,0,0.938,0.42,0.938,0.938
			v3.188c0,1.034,0.841,1.875,1.875,1.875h16.5c1.034,0,1.875-0.841,1.875-1.875v-3.188c0-0.518,0.42-0.938,0.938-0.938
			S24,16.591,24,17.109v3.188C24,22.364,22.318,24.046,20.25,24.046z M12.984,19.358V8.296c0-1.034-0.841-1.875-1.875-1.875H7.185
			l4.199-4.224c0.177-0.178,0.412-0.276,0.662-0.276c0.251,0,0.486,0.098,0.662,0.276l4.199,4.224h-0.924
			c-0.518,0-0.938,0.42-0.938,0.938c0,0.518,0.42,0.937,0.938,0.937h1.031c0.74,0,1.401-0.442,1.686-1.127
			c0.286-0.687,0.132-1.472-0.392-1.999l-4.27-4.295c-0.531-0.534-1.239-0.829-1.992-0.829s-1.461,0.294-1.992,0.829l-4.27,4.295
			C5.261,5.698,5.107,6.482,5.393,7.169c0.285,0.684,0.946,1.127,1.686,1.127h4.031v11.062c0,0.518,0.42,0.938,0.938,0.938
			C12.565,20.296,12.984,19.876,12.984,19.358z"/>
	</g>
</g>
</svg>
